X:272
T:B272- Last Christmas 'twas my chance
S:'Pills' tune, not original. see BM541 for it
Q:1/4=120
L:1/4
M:C
K:G
D|GABc|d3B|cBAG|F2DD|GABG|c3B|ABAG|F2(cB)|A3G|G3|]

